X:40
T:Grinders,The. WCF.040
T:Our Bride is No Maid,aka. WCF.040
M:9/8
L:1/8
Q:3/8=120
S:Wm Clarke MS, Feltwell, 1858
O:England
A:Norfolk
N:
Z:Transcribed Lyn Law 04/2006
K:G
“_6/8 in MS”gfg edc BAG|gfg efg agf|\
gfg edc BAG|ABA A2B dcB:|!
|:AAA A2B G2E|AAA A2B dcB|\
AAA A2B G2E|dBG GBc dcB:|]

